X:1
T:Title
%%score { ( 1 3 4 ) | ( 2 5 ) }
L:1/8
M:3/4
K:Eb
V:1 treble nm="Grand Piano"
V:3 treble 
V:4 treble 
V:2 bass 
V:5 bass 
V:1
 z2 z2[Q:1/4=96] [EG]>[FA] | [GB]3 [GB] [Ac]>[EG] | [GB]4 z2 | [Fd]3 [Dc] [DF]>[Dc] | %4
[M:2/4] [EB]4 |[M:1/4] [EG]>[FA] |[M:3/4] [GB]3 [GB] [Ac]>[EG] | [GB]4 z2 | [Fd]3 [DB] [DA]>[DF] | %9
[M:2/4] E4 |[M:1/4] B>B |[M:3/4] [Ge]4 z2 | [GB]4 z2 | [Fd]4 z2 | [EB]4 z2 | [Ge]4 z2 | [GB]4 z2 | %17
 [Fd]4 z2 |[M:2/4] E4 |] %19
V:2
 z2 z2 [E,B,]>[E,B,] | [E,E]3 [E,E] [E,E]>[E,B,] | [E,A,]4 z2 | [B,,B,]3 [B,,B,] [B,,B,]>[B,,A,] | %4
[M:2/4] [E,G,]4 |[M:1/4] [E,B,]>[E,B,] |[M:3/4] [E,E]3 [E,E] [E,E]>[E,B,] | [E,B,]4 z2 | %8
 [B,,B,]3 [B,,F,] [B,,B,]>[B,,A,] |[M:2/4] [E,G,]4 |[M:1/4][K:treble] G>G | %11
[M:3/4][K:bass] [E,B,]E, z G [E,B,]2 | [E,D]E, E,2 z2 | [B,,B,]B,, z D z A, | %14
 [E,G,]E, E,2[K:treble] G>G | [E,B,]E, z G [E,B,]2 | [E,D]E, E,2 z2 | [B,,B,]B,, z D z [A,D] | %18
[M:2/4] [E,G,][E,A,] [E,G,]2 |] %19
V:3
 x6 | x6 | x6 | x6 |[M:2/4] x4 |[M:1/4] x2 |[M:3/4] x6 | x6 | x6 |[M:2/4] x4 |[M:1/4] x2 | %11
[M:3/4] z B, z B [Bd][Ac] | z C B,2 z2 | z B, z c [B,DF][Dc] | z G, G,2 B>B | z B, z B [Bd][Ac] | %16
 z C B,2 z2 | z B, z B [B,DA]F |[M:2/4] z C B,2 |] %19
V:4
 x6 | x6 | x6 | x6 |[M:2/4] x4 |[M:1/4] x2 |[M:3/4] x6 | x6 | x6 |[M:2/4] x4 |[M:1/4] x2 | %11
[M:3/4] z2 B,2 z2 | x6 | z2 B,2 z2 | x6 | z2 B,2 z2 | x6 | z2 B,2 z2 |[M:2/4] x4 |] %19
V:5
 x6 | x6 | x6 | x6 |[M:2/4] x4 |[M:1/4] x2 |[M:3/4] x6 | x6 | x6 |[M:2/4] x4 | %10
[M:1/4][K:treble] x2 |[M:3/4][K:bass] z2 E,2 z2 | x6 | z2 B,,2 B,,2 | x4[K:treble] x2 | z2 E,2 z2 | %16
 x6 | z2 B,,2 B,,2 |[M:2/4] x4 |] %19

